X:1
T: Sir James M. of Edingight
C:Alexander Walker
R:Strathspey
Q: 128
K:Em
M:4/4
L:1/16
|:G2|E4 GFED BE3 G3E|D4 F3D A3D F3D|B,3E GFED G3A B3e|d3B A3F EEE2 E2G2|
E4 GFED BE3 G3E|D4 F3D A3D F3D|B,3E GFED G3A B3e|d3B A3F EEE2 E2B2|
e4 B3e GE3 e3c|d4 A3d FD3 A3F|e4 B3e G3E e3c|d3B A3F EEE2 E2B2|
e4 B3e GE3 e3c|d4 A3d FD3 A3F|E3G F3A G3B A3c|d3B A3F EEE2 E2:|
